X:1
T:Cello Suite in G
T:Cello Suite in G
T:(5th Movement - Minuet I and II)
T:J. S. Bach
C:J. S. Bach
L:1/8
M:3/4
K:G
V:1 bass nm="Violoncello" snm="Vc."
V:1
!p! (G,,D,) (B,2 A,B,/C/) | (B,A,) (G,F, G,D,) | (E,G, C)A, F,D | T[G,,D,B,]4 [D,A,]2 | %4
!mf! (A,,F,) (C2 B,C/D/) | (CB,) (A,G, F,E,) | (F,G,/A,/) (G,F, E,F,) |!p! D,2 (.A,,2 .D,,2) :: %8
!mf! (D,F,) (A,2 G,A,/B,/) | (A,G,) (F,E, D,F,) |!<(! (B,,D, ^G,A,) (B,D) | A,,(D C)B, C2!<)! | %12
!f! (^D,F, A,C) (.B,.A,) | (B,E, G,,)(A, C.B,) | A,G, F,E, B,,^D, | E,,3!>(! (E, D,C,)!>)! | %16
!mp! (B,,D,) (G,2 D,E,/=F,/) | (=F,D,) (E,C,) .C,,.B,, |!mf! (^C,E,) (A,2 E,^F,/G,/) | %19
 (G,E,) (F,D,) .D,,.A,, |!<(! (D,F,) (.A,.C) .B,.D | (E,G,) (.B,.D) .C.E!<)! |!f! DF, G,B,, D,,F, | %23
 [G,,G,]6 :|[K:F]!p! (B,A, B,)(.D, ._E,.G,,) | F,,2 (.A,2 .D,2) | (G,^F, G,)(.B,, .C,._E,,) | %27
 (D,,A,, D,)(.G, .^F,.A,) |!<(! (B,A, B,)(.D, ._E,.G,,) | F,,2 (.A,2 .D,2) | %30
 (G,^F, G,)(.B,, .C,.=E,,) | (.D,,.G,) (G,2 ^F,2)!<)! ::!f! (D,^F, A,)(.C ._E.D) | %33
 (CB, A,.B,) (A,G,) | (C,E, G,)(.B, .D.C) |!>(! (B,A, G,.A,) (F,_E,)!>)! | %36
!p! (D,F, B,)(.A, .B,.D,) |!<(! (_E,G, B,)(.A, .B,.D)!<)! | (C_E) DB, (F,A,) | %39
!>(! (B,F, D,.F,) B,,2!>)! |!p! (=B,,D, F,)(._A, .G,.F,) |!<(! _E,G, CD _E2!<)! | %42
!p! (A,,C, _E,)(.G, .F,.E,) |!<(! (D,F,) B,C D2!<)! |!p!!<(! (^F,,A,, C,)(._E, .D,.C,) | %45
 (B,,D, G,)(.A, .B,.G,) | C,B, A,G, D,^F,!<)! |!f! G,,6 :|[K:G]!p! (G,,D,) (B,2 A,B,/C/) | %49
 (B,A,) (G,F, G,D,) | (E,G, C)A, F,D | T[G,,D,B,]4 [D,A,]2 |!mf! (A,,G,) (C2 B,C/D/) | %53
 (CB,) (A,G, F,E,) | (F,G,/A,/) (G,F, E,F,) |!p! D,2 (.A,,2 .D,,2) |!mf! (D,F,) (A,2 G,A,/B,/) | %57
 (A,G,) (F,E, D,F,) |!<(! (B,,D, ^G,A,) (B,D) | A,,(D C)B, C2!<)! |!f! (^D,F, A,C) (.B,.A,) | %61
 (B,E, G,,)(A, C.B,) | A,G, F,E, B,,^D, | E,,3!>(! (E, D,C,)!>)! |!mp! (B,,D,) (G,2 D,E,/=F,/) | %65
 (=F,D,) (E,C,) .C,,B,, |!mf! (^C,E,) (A,2 E,^F,/G,/) | (G,E,) (F,D,) .D,,.A,, | %68
!<(! (D,F,) (.A,.C) .B,.D | (E,G,) (.B,.D) .C.E!<)! |!f! DF, G,B,, D,,F, | [G,,G,]6 |] %72

